!!!COM: Scriabin, Alexander
!!!OTL@@FR: Prélude en si mineur
!!!OTL@@EN: Prelude in B Minor
!!!OPR@@FR: 6 Préludes
!!!OPR@@EN: 6 Preludes
!!!OPS: 13
!!!ONM: 6
!!!ODT: 1895
!!!AGN: Prelude
**kern	**kern	**dynam
*staff2	*staff1	*staff1/2
*Ipiano	*Ipiano	*
*clefF4	*clefG2	*
*k[f#c#]	*k[f#c#]	*
*b:	*b:	*
*M6/8	*M6/8	*
8BBBB 8BBB	8r	.
=1	=1	=1
*^	*	*
4.ryy	8FF#L 8F#	8dL 8dd	.
.	8FF# 8F#	8d 8cc#	.
.	8FF#J 8F#	8dJ 8b	.
8BBL	4F#	4d 4a	.
8FF#J	.	.	.
8ryy	8EE 8E	8F# 8B 8f#	.
*v	*v	*	*
=2	=2	=2
8DDL 8D	[4.F# [4.B [4.f#	.
8BBB 8BB	.	.
8EEJ 8E	.	.
8DDL 8D	4F#] 4B] 4f#]	.
8BBBJ 8BB	.	.
8BBBB 8BBB	8r	.
=3	=3	=3
*^	*	*
4.ryy	8GGL 8G	8eL 8ee	.
.	8GG 8G	8e 8dd	.
.	8GGJ 8G	8eJ 8ccn	.
8CnL	4G	4e 4b	.
8GGJ	.	.	.
8ryy	8FF# 8F#	8G 8cn 8g	.
*v	*v	*	*
=4	=4	=4
8EEL 8E	[4.G 4.cn [4.g	.
8BBB 8BB	.	.
8FF#J 8F#	.	.
8EEL 8E	4G] 4B 4g]	.
8BBB 8BB	.	.
8CCnJ 8Cn	[8E [8A#X [8e	.
=5	=5	=5
8CC#XL 8C#X	4E] 4A 4e]	.
8FFF#J 8FF#	.	.
8F# 8c# 8f#	8e 8a#X 8ee	.
8F#L 8d 8g	8eL 8b 8ee	.
8F#J 8c# 8f#	8eJ 8a# 8ee	.
8CCn 8Cn	[8E [8A#X [8e	.
=6	=6	=6
8CC#XL 8C#X	4E] 4A 4e]	.
8FFF#J 8FF#	.	.
8F# 8c# 8f#	8a#X 8ee 8aa#X	.
8F#L 8d 8g	8bL 8ee 8aa#	.
8F#J 8c# 8f#	8a#J 8ee 8aa#	.
8GGG 8GG	8r	.
=7	=7	=7
*^	*	*
4.ryy	8E#XL 8B 8e#X	4b 4ee#X 4bb	.
.	8E#J 8B 8e#	.	.
.	8CC# 8C#	8r	.
4B	8EnL 8en	4cc# 4gg 4ccc#	.
.	8E#XJ 8e#X	.	.
8ryy	8FFF# 8FF#	8r	.
*v	*v	*	*
=8	=8	=8
8F# 8A#X 8f#	4cc# 4ff# 4ccc#	.
8FF#L 8F#	.	.
8EE#XJ 8E#X	8r	.
8GGL 8G	4r	.
8FF#J 8F#	.	.
8BBBB 8BBB	8r	.
=9	=9	=9
*^	*	*
4.ryy	8FF#L 8F#	8dL 8dd	.
.	8FF# 8F#	8d 8cc#	.
.	8FF#J 8F#	8dJ 8b	.
8BBL	4F#	4d 4a	.
8FF#J	.	.	.
8ryy	8EE 8E	8F# 8B 8f#	.
*v	*v	*	*
=10	=10	=10
8DDL 8D	[4.F# [4.B [4.f#	.
8BBB 8BB	.	.
8EEJ 8E	.	.
8DDL 8D	4.F#] 4.B] 4.f#]	.
8BBBJ 8BB	.	.
8BBBB 8BBB	.	.
=11	=11	=11
*^	*	*
4.ryy	8FF#L 8G#X	8dL 8dd	.
.	8FF# 8G#	8d 8cc#	.
.	8FF#J 8G#	8dJ 8b	.
8BBL	4A	4d 4a	.
8FF#J	.	.	.
8ryy	8EE 8E	8F# 8A 8f#	.
*v	*v	*	*
=12	=12	=12
8DDL 8D	[4.F# 4.A [4.f#	.
8BBB 8BB	.	.
8EEJ 8E	.	.
8DDL 8D	4F#] 4G#X 4f#]	.
8BBBJ 8BB	.	.
*	*clefF4	*
8BBB#X 8BB#X	[8AA [8F# [8A	.
=13	=13	=13
8CC#L 8C#	4AA] 4F#] 4A]	.
8CCC#J 8CC#	.	.
*	*clefG2	*
8C# 8A 8c#	8A 8f# 8a	.
8C#L 8A 8d	8BL 8f# 8a	.
8C#J 8A 8c#	8AJ 8f# 8a	.
*	*clefF4	*
8BBB#X 8BB#X	[8AA [8F# [8A	.
=14	=14	=14
8CC#L 8C#	4AA] 4F#] 4A]	.
8CCC#J 8CC#	.	.
*	*clefG2	*
8AA 8F# 8A	8c# 8f# 8cc#	.
8AAL 8F# 8B	8dL 8f# 8cc#	.
8AAJ 8F# 8A	8c#J 8f# 8cc#	.
8CCC# 8CC#	8r	.
=15	=15	=15
*^	*	*
4D	8AAL 8A	4d 4f# 4b 4dd	.
.	8GG#XJ 8G#X	.	.
8ryy	8CCC# 8CC#	8r	.
4E#X	8AAL 8A	4c# 4e#X 4cc#	.
.	8BBJ 8B	.	.
8ryy	8FFF# 8FF#	8r	.
*v	*v	*	*
=16	=16	=16
8AA 8F# 8A	4c# 4f# 4cc#	.
8CC#L 8C#	.	.
8BBB#XJ 8BB#X	8r	.
8DDL 8D	4r	.
8CC#J 8C#	.	.
8FFF# 8FF#	8r	.
*	*clefF4	*
=17	=17	=17
*	*^	*
8.BBB#XL 8.BB#X	8AL 8a	4.A 4.d#X	.
.	8G#X 8g#X	.	.
8.FFF#J 8.FF#	.	.	.
.	8F#J 8f#	.	.
8.CC#L 8.C#	4E 4e	4A	.
8.FFF#J 8.FF#	.	.	.
.	8C# 8c#	8F#	.
=18	=18	=18	=18
8.EEL 8.E	4.C# 4.c#	8G#XL	.
.	.	8A	.
8.FFF#J 8.FF#	.	.	.
.	.	8F#J	.
8.DD#XL 8.D#X	4.BB#X 4.B#X	8G#L	.
.	.	8A	.
8.FFF#J 8.FF#	.	.	.
.	.	8F#J	.
*	*clefG2	*	*
=19	=19	=19	=19
8.FF#L 8.F#	4.B#X	8G#XL 8g#X	.
.	.	8G# 8g#	.
8.GG#XJ 8.G#X	.	.	.
.	.	[8G#J [8g#	.
8.FF#L 8.F#	4c#	8G#L] 8g#]	.
.	.	8A#X 8a#X	.
8.EEJ 8.E	.	.	.
.	8f# 8g#	8BnJ 8bn	.
=20	=20	=20	=20
8.DD#XL 8.D#X	4.f# 4.g#X	8B#XL 8b#X	.
.	.	8c# 8cc#	.
8.GGG#XJ 8.GG#X	.	.	.
.	.	8d#XJ 8dd#X	.
4CC# 4C#	4.ryy	4e 4g# 4ee	.
8CC# 8C#	.	8raa	.
=21	=21	=21	=21
8.FF##XL 8.F##X	4.e 4.a#X	8eL 8ee	.
.	.	8d#X 8dd#X	.
8.CC#J 8.C#	.	.	.
.	.	8c#J 8cc#	.
8.GG#XL 8.G#X	4e	4B 4b	.
8.CC#J 8.C#	.	.	.
.	8c#	8G#X 8g#X	.
=22	=22	=22	=22
8.BBL 8.B	8d#XL	4.G#X 4.g#X	.
.	8e	.	.
8.CC#J 8.C#	.	.	.
.	8c#J	.	.
8.AA#XL 8.A#X	8d#L	4.F##X 4.f##X	.
.	8e	.	.
8.CC#J 8.C#	.	.	.
.	8c#J	.	.
=23	=23	=23	=23
8.C#L 8.c#	4.f##X	8d#XL 8dd#X	.
.	.	8d# 8dd#	.
8.D#XJ 8.d#X	.	.	.
.	.	[8d#J [8dd#	.
8.C#L 8.c#	4g#X	8d#L] 8dd#]	.
.	.	8e#X 8ee#X	.
8.BBJ 8.B	.	.	.
.	8cc# 8dd#	8f#XJ 8ff#X	.
=24	=24	=24	=24
4AA#X 4A#X	4.cc# 4.dd#X	8f##XL 8ff##X	.
.	.	8g#X 8gg#X	.
8DD#X 8D#X	.	8a#XJ 8aa#X	.
8GG#XL 8G#X	4ee	4b 4bb	.
8GGn 8Gn	.	.	.
8GGGnJ 8GGn	8rc	8raa	.
*	*v	*v	*
=25	=25	=25
*^	*	*
4BB 4B	4.ryy	8eL 8b 8ee	.
.	.	8d 8dd	.
8E	.	8cnJ 8ccn	.
8F#L	4e	4B 4b	.
8GJ	.	.	.
8rEE	8rc	8E 8e	.
=26	=26	=26	=26
*	*	*^	*
8EEL 8E	2.ryy	8F#L	[4.E [4.e	.
8DD 8D	.	8G	.	.
8CCnJ 8Cn	.	8EJ	.	.
4BBB 4BB	.	8F#L	4E] 4e]	.
.	.	8GJ	.	.
8FFF# 8FF#	.	8rc	8raa	.
*	*	*v	*v	*
=27	=27	=27	=27
4BB 4F# 4B	4.ryy	8eL 8b 8ee	.
.	.	8d 8dd	.
8D	.	8c#XJ 8cc#X	.
8E#XL	4d	4B 4b	.
8F#J	.	.	.
8rEE	8rc	8F# 8B 8f#	.
*v	*v	*	*
=28	=28	=28
*	*^	*
8EEL 8E	8c#L	[4.F# [4.f#	.
8DD 8D	8d	.	.
8CC#J 8C#	8BJ	.	.
4BBB 4BB	8c#L	4F#] 4f#]	.
.	8dJ	.	.
8EEE#X 8EE#X	8rc	8raa	.
=29	=29	=29	=29
4BB 4G 4B	4.g	8dL 8dd	.
.	.	8c# 8cc#	.
8BBB 8BB	.	8BJ 8b	.
8CC#L 8C#	4B	4G 4g	.
8DDJ 8D	.	.	.
8FFF# 8FF#	8rc	8raa	.
=30	=30	=30	=30
4BB 4F# 4B	4.f#	8dL 8dd	.
.	.	8c# 8cc#	.
8BBB 8BB	.	8BJ 8b	.
8CC#L 8C#	4B	4F# 4f#	.
8DDJ 8D	.	.	.
8GGG 8GG	8rc	8raa	.
=31	=31	=31	=31
4BB 4E#X 4B	4.e#X	8dL 8dd	.
.	.	8c# 8cc#	.
8BBB 8BB	.	8BJ 8b	.
8CC#L 8C#	4B	4E#X 4e#	.
8DDJ 8D	.	.	.
8CCC# 8CC#	8rc	8raa	.
=32	=32	=32	=32
4.BB 4.E#X 4.B	4.e#X	8dL 8dd	.
.	.	8c# 8cc#	.
.	.	8BJ 8b	.
4E# 4B 4e#X	4.b 4.dd	4a 4aa	.
8FFF# 8FF#	.	8gn 8ggn	.
*	*v	*v	*
=33	=33	=33
4F# 4A#X 4f#	4f# 4a#X 4cc# 4ff#	.
8FF# 8F#	8r	.
8GGL 8G	4A#X 4c# 4e 4a#	.
8CC# 8C#	.	.
8FF#J 8F#	8r	.
=34	=34	=34
8GGL 8G	4B 4d 4b	.
8BBB 8BB	.	.
8CC#J 8C#	8r	.
8DDL 8D	4E#X 4G#X 4B 4e#X	.
8BBB 8BB	.	.
8BBB#XJ 8BB#X	8r	.
=35	=35	=35
8CC#L 8C#	4F# 4A#X 4f#	.
8FFF# 8FF#	.	.
8FF#J 8F#	8r	.
8GGL 8G	4A# 4c# 4e 4a#X	.
8CC# 8C#	.	.
8FF#J 8F#	8r	.
=36	=36	=36
8GGL 8G	4B 4d 4b	.
8BBB 8BB	.	.
8CC#J 8C#	8r	.
8DDL 8D	4E#X 4G#X 4B 4e#X	.
8BBB 8BB	.	.
8BBB#XJ 8BB#X	8r	.
=37	=37	=37
8CC#L 8C#	4F# 4A#X 4f#	.
8FFF# 8FF#	.	.
8BBB#XJ 8BB#X	8r	.
8CC#L 8C#	4F# 4A# 4f#	.
8FFF# 8FF#	.	.
8CC#J 8C#	8r	.
=38	=38	=38
8DDL 8D	4G 4B 4f#	.
8FFF# 8FF#	.	.
8DDJ 8D	8r	.
8DD#XL 8D#X	4G#X 4B#X 4f#	.
8FFF# 8FF#	.	.
8DD#J 8D#	8r	.
=39	=39	=39
8EEL 8E	2.A 2.c# 2.f#	.
8FFF# 8FF#	.	.
8DD#XJ 8D#X	.	.
8EEL 8E	.	.
8FFF# 8FF#	.	.
8DD#J 8D#	.	.
=40	=40	=40
8EEL 8E	4.A#X 4.c# 4.f#	.
8FFF# 8FF#	.	.
8EE#XJ 8E#X	.	.
8FF#L 8F#	4.A# 4.en 4.f#	.
8FFF# 8FF#	.	.
8BBBBJ 8BBB	.	.
=41	=41	=41
*^	*	*
4.ryy	8FF#L 8F#	8dL 8dd	.
.	8FF# 8F#	8d 8cc#	.
.	8FF#J 8F#	8dJ 8b	.
8BBL	4F#	4d 4a	.
8FF#J	.	.	.
8ryy	8EE 8E	8F# 8B 8f#	.
*v	*v	*	*
=42	=42	=42
8DDL 8D	4.F# 4.B 4.f#	.
8BBB 8BB	.	.
8EEJ 8E	.	.
8DDL 8D	4r	.
8BBBJ 8BB	.	.
8BBBB 8BBB	8r	.
=43	=43	=43
*^	*	*
4.ryy	8GGL 8G	8eL 8ee	.
.	8GG 8G	8e 8dd	.
.	8GGJ 8G	8eJ 8ccn	.
8CnL	4G	4e 4b	.
8GGJ	.	.	.
8ryy	8FF# 8F#	8G 8cn 8g	.
*v	*v	*	*
=44	=44	=44
8EEL 8E	[4.G 4.cn [4.g	.
8BBB 8BB	.	.
8FF#J 8F#	.	.
8EEL 8E	4G] 4B 4g]	.
8BBBJ 8BB	.	.
8BBB#X 8BB#X	[8E [8A#X [8e	.
=45	=45	=45
8CC#L 8C#	4E] 4A#] 4e]	.
8FFF#J 8FF#	.	.
8F# 8c# 8f#	8e 8a#X 8ee	.
8F#L 8d 8g	8eL 8b 8ee	.
8F#J 8c# 8f#	8eJ 8a# 8ee	.
8BBB#X 8BB#X	[8E [8A#X [8e	.
=46	=46	=46
8CC#L 8C#	4E] 4A#] 4e]	.
8FFF#J 8FF#	.	.
8F# 8c# 8f#	8a#X 8ee 8aa#X	.
8F#L 8d 8g	8bL 8ee 8aa#	.
8F# 8c# 8f#	8a#J 8ee 8aa#	.
8GGGJ 8GG	8r	.
=47	=47	=47
8FnL 8B 8fn	4b 4ffn 4bb	.
8FJ 8B 8f	.	.
8C#X 8c#X	8r	.
8DL 8d	4gg 4bb 4ggg	.
8GGJ 8G	.	.
8D#X 8d#X	8r	.
=48	=48	=48
8EL 8e	4gg 4cccn 4ggg	.
8GGJ 8G	.	.
8DD#X 8D#X	8r	.
8EEL 8E	4G 4cn 4g	.
8GGGJ 8GG	.	.
8CC#X 8C#X	8r	.
=49	=49	=49
8DDL 8D	4Fn 4G 4B 4g	.
8GGGJ 8GG	.	.
8C# 8c#	8r	.
8DL 8d	4g 4b 4gg	.
8GGJ 8G	.	.
8D#X 8d#X	8r	.
=50	=50	=50
8EL 8e	4g 4ccn 4gg	.
8GGJ 8G	.	.
8DD#X 8D#X	8r	.
8EEL 8E	4G 4cn 4g	.
8GGGJ 8GG	.	.
8CC#X 8C#X	8r	.
=51	=51	=51
8DDL 8D	4Fn 4G 4B 4g	.
8GGGJ 8GG	.	.
8C# 8c#	8r	.
8DL 8d	4e#X 4b 4ee#X	.
8GGJ 8G	.	.
8C# 8c#	8r	.
=52	=52	=52
8DL 8d	4f# 4b 4ff#	.
8FF#J 8F#	.	.
8CC# 8C#	8r	.
8DDL 8D	4F# 4B 4f#	.
8FFF#J 8FF#	.	.
8CCn 8Cn	8r	.
=53	=53	=53
8CC#XL 8C#X	4E 4B 4f#	.
8FFF#J 8FF#	.	.
8F# 8f#	8r	.
8F#L 8f#	4e 4b 4ff#	.
8C#J 8c#	.	.
8CC# 8C#	8r	.
=54	=54	=54
8CC#L 8C#	4E 4A#X 4f#	.
8FFF#J 8FF#	.	.
8F# 8f#	8r	.
8F#L 8f#	4e 4a#X 4ff#	.
8FF#J 8F#	.	.
8BBB 8BB	8r	.
=55	=55	=55
*	*^	*
8.FF#L 8.F#	4.d#X	8cnL 8ccn	.
.	.	8c 8b	.
8.BBBJ 8.BB	.	.	.
.	.	8cJ 8a	.
8.GGL 8.G	4e	4c 4g	.
8.BBBJ 8.BB	.	.	.
.	8ryy	8G 8e	.
*	*v	*v	*
=56	=56	=56
8.BBL 8.B	4.G [4.cn [4.e	.
8.BBBJ 8.BB	.	.
8.AA#XL 8.A#X	4F# 4c] 4e]	.
8.BBBJ 8.BB	.	.
.	8An	.
=57	=57	=57
*	*^	*
8.AAnL 8.An	8BL	4.Fn 4.e	.
.	8cn	.	.
8.BBBJ 8.BB	.	.	.
.	8AJ	.	.
8.AAL 8.A	8BL	4.F 4.d#X	.
.	8c	.	.
8.BBBJ 8.BB	.	.	.
.	8AJ	.	.
=58	=58	=58	=58
8.GG#XL 8.G#X	8BL	4.E [4.e	.
.	8cn	.	.
8.BBBJ 8.BB	.	.	.
.	8BJ	.	.
8.GGnL 8.Gn	4.A#X	8eL]	.
.	.	8f#	.
8.BBBJ 8.BB	.	.	.
.	.	8eJ	.
=59	=59	=59	=59
8.FF#L 8.F#	4.d#X	8cnL 8ccn	.
.	.	8c 8b	.
8.BBBJ 8.BB	.	.	.
.	.	8cJ 8a	.
8.GGL 8.G	4e	4c 4g	.
8.BBBJ 8.BB	.	.	.
.	8ryy	8G 8e	.
*	*v	*v	*
=60	=60	=60
8.BBL 8.B	4.G [4.cn [4.e	.
8.BBBJ 8.BB	.	.
8.AA#XL 8.A#X	4F# 4c] 4e]	.
8.BBBJ 8.BB	.	.
.	8An	.
=61	=61	=61
*	*^	*
8.AAnL 8.An	8BL	4.Fn 4.e	.
.	8cn	.	.
8.BBBJ 8.BB	.	.	.
.	8AJ	.	.
8.AAL 8.A	8BL	4.F 4.d#X	.
.	8c	.	.
8.BBBJ 8.BB	.	.	.
.	8AJ	.	.
=62	=62	=62	=62
8.GG#XL 8.G#X	8BL	4.E 4.e	.
.	8cn	.	.
8.BBBJ 8.BB	.	.	.
.	8BJ	.	.
8.GGnL 8.Gn	4.A#X	4F# 4f#	.
8.BBBJ 8.BB	.	.	.
.	.	8E 8e	.
*	*v	*v	*
=63	=63	=63
8BBBL 8BB	4.D#X 4.B 4.d#X	.
8AAA#X 8AA#X	.	.
8GGG#XJ 8GG#X	.	.
4FFF# 4FF#	4D# 4B 4f#	.
8F# 8B 8f#	8e 8b 8ee	.
=64	=64	=64
4.F# 4.B 4.f#	8d#XL 8dd#X	.
.	8B 8b	.
.	8eJ 8ee	.
8r	8d#L 8dd#	.
8r	8BJ 8b	.
8BBB 8BB	8r	.
=65	=65	=65
8BBBL 8BB	4.D#X 4.B 4.f#	.
8AAA#X 8AA#X	.	.
8GGG#XJ 8GG#X	.	.
4FFF# 4FF#	4F# 4d#X 4b	.
8D#X 8B	8g#X 8b 8gg#X	.
=66	=66	=66
*	*^	*
4.D#X 4.B	4.b	8f#L 8ff#	.
.	.	8d#X 8dd#X	.
.	.	8g#XJ 8gg#X	.
8r	4.ryy	8f#L 8ff#	.
8r	.	8d#J 8dd#	.
8BB	.	8cc# 8ccc#	.
=67	=67	=67	=67
4.F# 4.d#X	4.ff#	8bL 8bb	.
.	.	8f# 8ff#	.
.	.	8cc#J 8ccc#	.
8r	4.ff#	8bL 8bb	.
8r	.	8f# 8ff#	.
8FF#	.	8eeJ 8eee	.
=68	=68	=68	=68
4.D#X 4.B 4.f#	4.ff#	8dd#XL 8ddd#X	.
.	.	8b 8bb	.
.	.	8eeJ 8eee	.
8r	4.ff#	8dd#L 8ddd#	.
8r	.	8b 8bb	.
8BBBB 8BBB	.	8ff#J 8fff#	.
*	*v	*v	*
=69	=69	=69
8FF# 8D#X 8B 8f#	8dd#X 8ff# 8bb 8fff#	.
8r	8r	.
8r	8r	.
[4.BBB [4.FF# [4.BB	[4.D#X [4.F# [4.B [4.d#X	.
=70	=70	=70
2.BBB] 2.FF#] 2.BB]	2.D#] 2.F#] 2.B] 2.d#]	.
==	==	==
*-	*-	*-
!!!system-decoration: {(*)}
!!!ENC: Bryan Jacob Bell
!!!END: November 2021 to April 2022
!!!PED: Günter Philipp
!!!PTL: Ausgewählte Klavierwerke (Edition Peters)
